!! Aleut songs
!! From: Shirley A. Hauck,
!! "Extinction and Reconstruction of Aleut Music and Dance"
!! PhD dissertation, University of Pittsburgh, 1986.
!! page 213
!! Dance Song
!!!WNG: Encoded exactly as transcribed; may contain mistakes.
!!!WNG: Actual meter is irregular according to the transcription.
**kern	**silbe
*clefG2	*
*M2/4	*M2/4
*>[A,A,B,B]	*
*>A	*>A
=1-	=1-
8c	.
16e	.
8.e	.
8e	.
8e	.
=2	=2
8d	.
8f	.
8f	.
8r	.
=3	=3
!! Swallowed speech-song
8d	.
16d	.
8.d	.
8d	.
8d	.
=4	=4
!! Approx
8e-	.
8e-	.
8e-	.
8r	.
=5	=5
*>B	*>B
*M2/4	*M2/4
8x	Hey
8r	.
8x	Hey
8r	.
=6	=6
8g	.
8g	.
8g	.
8r	.
=7	=7
8d	.
16d	.
8.d	.
8d	.
8d	.
=8	=8
!! Approx
8e-	.
8e-	.
8e-	.
8r	.
==:|!	==:|!
*-	*-
